svg/home_import_outline.svg

<svg xmlns="http://www.w3.org/2000/svg" viewBox="0 0 24 24"><path d="m15 13-4-4v3H2v2h9v3m11-5h-2v9H4v-5h2v3h12v-8l-6-6-5 5H4l8-8z"/></svg>

<?xml version="1.0" encoding="UTF-8"?><!DOCTYPE svg PUBLIC "-//W3C//DTD SVG 1.1//EN" "http://www.w3.org/Graphics/SVG/1.1/DTD/svg11.dtd"><svg xmlns="http://www.w3.org/2000/svg" xmlns:xlink="http://www.w3.org/1999/xlink" version="1.1" id="mdi-home-import-outline" width="24" height="24" viewBox="0 0 24 24"><path d="M15 13L11 9V12H2V14H11V17M22 12H20V21H4V16H6V19H18V11L12 5L7 10H4L12 2L22 12Z" /></svg>
